!!!!SEGMENT: pl-wnifc--6854-n_kozlowski-jozef--polonaise-in-b-vestale.krn
!!!cenid: 18xx:3967
!!!COM: Kozłowski, Józef
!!!COM-rismID: pe30003850
!!!CDT: 1757-1831
!!!CNT: Polish
!!!OTL: Polonaise in B/Vestale
!!!PDT:
!!!AGN:
!!!SMS-siglum: PL-Wnifc
!!!SMS-shelfmark: 6854/n
!!!SMS-shelfwork: W
!!!SMS-variant:
!!!SMS-altvar:
!!!NIFC-rismSourceID: 1001159811
!!!NIFC-rismChildID: 1001159822
!!!NIFC-islandoraID: nifc:214685
!!!URL-pdf-islandora: https://repozytorium.nifc.pl/islandora/object/nifc%3A214685/datastream/PDF/view
!!!URL-scan: https://polish.musicsources.pl/pl/lokalizacje/galeria/klocki-introligatorskie/689 @EN{Scan on Polish Music Sources Website} @PL{Skany w portalu Dziedzictwo Muzyki Polskiej w otwartym dostępie}
!!!ONB-nifc: UWAGA: skan 20
!!!AIN: 2 piano
!!!key: B-
**kern	**kern	**dynam
*part2	*part1	*part1
*staff2	*staff1	*
*I"PIANO.	*I"PIANO.	*
*I'Pf	*I'Pf	*
*ICklav	*ICklav	*
*Ipiano	*Ipiano	*
*clefF4	*clefG2	*
*k[b-e-]	*k[b-e-]	*
*B-:	*B-:	*
*M3/4	*M3/4	*
!	!LO:TX:a:B:t=POLONAISE\nTirée d'un Duo de l'Opera&colon; la Vestale.\nle 22 Janvier 1812.	!
!	!LO:TX:a:B:t=Quel trouble . . . quel transports	!
16r	16f/	p
*clefG2	*	*
=1	=1	=1
*	*	*^
!	!LO:TX:b:t=dolce	!	!LO:DY:b=2
(8B-/L 8d	8dd`\L	.	p
8f/)	(16.dd\L	.	.
.	32cc\JJk)	.	.
(8B-/ 8d	4.b-^\	.	.
8f/)	.	.	.
(8B-/ 8d	.	.	.
8f/J)	16cc`\LL	.	.
.	16dd`\JJ	.	.
*	*	*v	*v
=2	=2	=2
*tremolo	*	*
(8c/L 8e-	8ee-`\L	.
8f/	(32ee-\LL	.
.	32ff\	.
.	32ee-\	.
.	32dd\JJJ)	.
!	!	!LO:HP:a
8c/ 8e-	(4.cc\	>
8f/	.	.
8c/ 8e-	.	]]
8f/J)	8b-\)	<
=3	=3	=3
(8A/L 8c 8e-	8a`\L	.
8f/	16r	.
.	(32a\LL	.
.	32b-\JJJ)	.
8A/ 8c 8e-	8cc`\L	.
8f/	16r	.
.	(32cc\LL	.
.	64dd\L	.
.	64ee-\JJJJ)	.
8A/ 8c 8e-	8.ff`\L	[ >
8f/J)	.	.
.	16ee-\Jk	.
=4	=4	=4
*Xtremolo	*	*
(8B-/L 8d	(8.cc#X\L	.
8f/)	.	.
.	16dd\Jk)	.
(8B-/ 8d	4dd^\	]
8f/J)	.	.
4B-/ 4d	8r	.
.	8f/	.
*clefF4	*	*
=5	=5	=5
*^	*	*
!	!	!	!LO:DY:b=2
!	!	!	!LO:DY:t=Fp
8BB-/L	2.BB-\	(16b-\LL	fp
.	.	16dd\JJ)	.
8D/ 8F	.	4dd^\	.
8D/ 8F	.	.	.
8D/ 8F	.	16cc#X`\LL	.
.	.	16dd`\JJ	.
8D/ 8F	.	(16ee-\LL	.
.	.	16dd\)	.
8D/J 8F	.	16ccn`\	.
.	.	16b-`\JJ	.
=6	=6	=6	=6
!	!	!	!LO:DY:b=2
!	!	!	!LO:DY:t=Fp
8BB-/L	2.BB-\	(8.a/L	pp
8E-/ 8G	.	.	.
.	.	16g/Jk)	.
8E-/ 8G	.	4.g^>/	.
8E-/ 8G	.	.	.
8E-/ 8G	.	.	.
8E-/J 8G	.	8ee-\	.
!!LO:LB:g=original	!	!	!
=7	=7	=7	=7
*	*	*^	*
!	!	!	!	!LO:DY:b=2
!	!	!	!	!LO:DY:t=Fp
8BB-/L	2.BB-\	(<4.ff^/	2.a\	pp
8E-/ 8A	.	.	.	.
8E-/ 8A	.	.	.	.
8E-/ 8A	.	8ee-/L	.	.
8E-/ 8A	.	8.cc/	.	.
8E-/J 8A	.	.	.	.
.	.	16a/Jk)	.	.
*v	*v	*	*	*
*	*v	*v	*
=8	=8	=8
!	!	!LO:DY:t=F
8BB-`/L 8D 8B-	8b-`/L	f
16r	16ra	.
(32BB-/LL	(32B-/LL	.
32AA/JJJ)	32A/JJJ)	.
8BB-`/L	8B-`/L	.
16r	16rf	.
(32C/LL	(32c/LL	.
64BB-/L	64B-/L	.
64AA/JJJJ)	64A/JJJJ	.
16.BB-/LL	16.B-/LL)	.
32C/K	32c/K	.
16.D/	16.d/	.
32En/JJk	32en/JJk	.
=9	=9	=9
8F`\	8f`/L	.
8F`\L	(32g/LL	.
.	32f/	.
.	32e-/	.
.	32f/JJJ)	.
8C`\	8f`/L 8a	.
8AA`\J	8f`/ 8a 8cc	.
8FF`/	8f`/J 8a 8cc 8ff	.
8r	16r	.
!	!LO:TX:b:t=espressivo	!
.	16f/	.
=10	=10	=10
!	!	!LO:HP:b=2
4..d\ 4..f	4..dd^\ 4..ff	>
(16c\ 16e-	(16cc\ 16ee-	.
8.B-\L 8.d	8.b-\L 8.dd	]
16F\Jk) 16c	16f\Jk) 16cc	.
=11	=11	=11
(16F\LL 16c	(16f\LL 16cc	.
16D\JJ) 16B-	16d\JJ) 16b-	.
4D^\ 4B-	4d^\ 4b-	.
(8F'\L 8c	(8f'\L 8cc	.
8B-'\ 8d	8b-'\ 8dd	.
8c'\J) 8e-	8cc'\J) 8ee-	.
=12	=12	=12
8d`\ 8f	8dd`\ 8ff	.
(4d^\ 4f	(4dd^\ 4ff	.
8B-\) 8d	8b-\) 8dd	.
(16e-\LL 16g	(16ee-\LL 16gg	.
16d\) 16f	16dd\) 16ff	.
16c`\ 16e-	16cc`\ 16ee-	.
16B-`\JJ 16d	16b-`\JJ 16dd	.
=13	=13	=13
*	*	*^
!	!	!LO:DY:a:t=F	!
8F\L 8c	8a\L 8cc	f	.
!	!	!	!LO:DY:b=2
!	!	!	!LO:DY:t=F
8F\ 8f	8a`\ 8cc 8ff	.	f
8C`\ 8c	8a`\ 8cc 8ff	.	.
8AA`\J 8A	8a`\J 8cc 8ff	.	.
8FF`\ 8F	8a`\L 8cc 8ff	.	.
8r	16r	.	.
.	16cc\Jk	.	.
!!LO:LB:g=original	!	!	!
=14	=14	=14	=14
!	!	!LO:HP:a	!LO:HP:b
4..e-\ 4..g	4..ee-\ 4..gg	>	>
(16d\ 16f	(16dd\ 16ff	]	]
16qd/ 16qf	16qdd/ 16qff	.	.
8.c\L 8.e-	8.cc\L 8.ee-	.	.
16B-\Jk) 16d	16b-\Jk) 16dd	.	.
*	*	*v	*v
=15	=15	=15
(16B-\LL 16d	(16b-\LL 16dd	.
16F\JJ) 16c	16a\JJ) 16cc	.
4F^\ 4c	4a^\ 4cc	.
(8F'\L 8c	(8a'\L 8cc	.
8B-'\ 8d	8b-'\ 8dd	.
8c'\J) 8e-	8cc'\J) 8ee-	.
=16	=16	=16
8d\ 8f	8dd\ 8ff	.
4d^\ 4f	4dd^\ 4ff	.
(8c'\L 8e-	(8cc'\L 8ee-	.
8B-'\ 8d	8b-'\ 8dd	.
8A'\J) 8c	8a'\J) 8cc	.
=17	=17	=17
.	16qqa/ 16qqcc	>
*	*^	*
*	*	*	*^
8G\ 8B-	8b-/	8g\	.	.
4G\ 4B-	(<4b-/	4.g\	.	.
8G\ 8B-	16cc/LL)	.	]	.
.	16dd/JJ	.	.	.
!	!	!	!	!LO:HP:b=2
4En\ 4G 4B- 4c	8cc/L	4g\	.	>]
.	8b-/J	.	.	.
*	*	*	*v	*v
=18	=18	=18	=18
!	!	!	!LO:DY:b=2
!	!	!	!LO:DY:t=Fp
16F\LL	8a/	8a\	fp
16e-X\	.	.	.
16c\	4a^/ 4ee-	[4.a^\	.
16e-\JJ	.	.	.
*rep	*	*	*
16F\LL	.	.	.
16e-\	.	.	.
16c\	8cc/	.	.
16e-\JJ	.	.	.
*Xrep	*	*	*
*rep	*	*	*
16F\LL	(<8ee-/L	4a\]	.
16e-\	.	.	.
16c\	8cc/J)	.	.
16e-\JJ	.	.	.
*Xrep	*	*	*
*	*v	*v	*
=19	=19	=19
16F\LL	16a`\LL	.
16e-\	16r	.
16c\	(16.dd\	.
16e-\JJ	.	.
.	32cc\JJk)	.
*rep	*	*
16F\LL	16a`\LL	.
16e-\	16r	.
16c\	(16.dd\	.
16e-\JJ	.	.
.	32cc\JJk)	.
*Xrep	*	*
*rep	*	*
16F\LL	(16b-\LL	.
16e-\	16a\)	.
16c\	16g`\	.
16e-\JJ	16f`\JJ	.
*Xrep	*	*
=20	=20	=20
!	!	!LO:DY:b=2
!	!	!LO:DY:t=Fp
16F\LL	(16b-\LL	fp
16d\	16dd\JJ)	.
16B-^\	(4f^\ 4ff	.
16d\JJ	.	.
*rep	*	*
16F\LL	.	.
16d\	.	.
16B-^\	8een\)	.
16d\JJ	.	.
*Xrep	*	*
*rep	*	*
16F\LL	(8.ff\L	.
16d\	.	.
16B-^\	.	.
16d\JJ	16ee-X\Jk)	.
*Xrep	*	*
!!LO:LB:g=original	!	!
=21	=21	=21
16F\LL	16dd`\LL	.
16d\	16rcc	.
16B-\	(16.gg\	.
16d\JJ	.	.
.	32ff\JJk)	.
*rep	*	*
16F\LL	16dd`\LL	.
16d\	16rcc	.
16B-\	(16.gg\	.
16d\JJ	.	.
.	32ff\JJk)	.
*Xrep	*	*
*rep	*	*
16F\LL	(16ee-\LL	.
16d\	16dd\)	.
16B-\	16cc`\	.
16d\JJ	16b-`\JJ	.
*Xrep	*	*
=22	=22	=22
*	*^	*
16F\LL	(16a\LL	2a\yy	.
16e-\	16cc\JJ)	.	.
!	!	!	!LO:HP:a
16c\	4a\ 4ee-	.	>
16e-\JJ	.	.	.
*rep	*	*	*
16F\LL	.	.	.
16e-\	.	.	.
16c\	8cc\	.	]
16e-\JJ	.	.	.
*Xrep	*	*	*
*rep	*	*	*
16F\LL	8.ee-/L	4a\	.
16e-\	.	.	.
16c\	.	.	.
16e-\JJ	16cc/Jk	.	.
*Xrep	*	*	*
*	*v	*v	*
=23	=23	=23
16F\LL	(16b-\LL	.
16e-\	16a\)	.
16c\	16dd`\	.
16e-\JJ	16cc`\JJ	.
*rep	*	*
16F\LL	(16b-\LL	.
16e-\	16a\)	.
16c\	16dd`\	.
16e-\JJ	16cc`\JJ	.
*Xrep	*	*
*rep	*	*
16F\LL	(16b-/LL	.
16e-\	16a/)	.
16c\	16g`/	.
16e-\JJ	16f`/JJ	.
*Xrep	*	*
=24	=24	=24
!	!	!LO:DY:t=Fp
16BB-\LL	16.d`/LL 16.b-	fp
16B-\	.	.
.	32d`/JK 32b-	.
16BB-\	8d`/J 8b-	.
16B-\JJ	.	.
16BB-\LL	16r	.
16B-\	16d`/KL 16b-	.
16BB-\	8d`/J 8b-	.
16B-\JJ	.	.
!	!	!LO:HP:a
16BB-\LL	(8c/L 8a	>
16B-\	.	.
16BB-\	8d/J) 8b-	]
16B-\JJ	.	.
=25	=25	=25
*tremolo	*	*
!	!	!LO:DY:t=Fp
16BB-/LL	16.e-`/LL 16.cc	fp
16B-\	.	.
.	32e-`/JK 32cc	.
16BB-/	8e-`/J 8cc	.
16B-\	.	.
16BB-/	16r	.
16B-\	16e-`/KL 16cc	.
16BB-/	8e-`/J 8cc	.
16B-\	.	.
!	!	!LO:HP:a
16BB-/	(8d/L 8bn	>
16B-\	.	.
16BB-/	8e-/J) 8cc	]
16B-\JJ	.	.
=26	=26	=26
!	!	!LO:DY:t=Fp
16BB-/LL	16.f/LL 16.b-X 16.dd	fp
16B-\	.	.
.	32f`/JK 32b- 32dd	.
16BB-/	8f`/J 8b- 8dd	.
16B-\	.	.
16BB-/	16r	.
16B-\	16f`/KL 16b- 16dd	.
16BB-/	8f`/J 8b- 8dd	.
16B-\	.	.
!	!	!LO:DY:a
16BB-/	(8a/L 8cc#X	>
16B-\	.	.
16BB-/	8b-/J) 8dd	]
16B-\JJ	.	.
!!LO:PB:g=original	!	!
=27	=27	=27
*	*^	*
16BB-/LL	(<16ff/LL	8g\	.
16B-\	16ee-/JJ)	.	.
16BB-/	4ee-`/	4g^\	.
16B-\	.	.	.
16BB-/	.	.	.
16B-\	.	.	.
16BB-/	(<32ff/LLL	8g\	.
.	32ee-/	.	.
16B-\	32dd/	.	.
.	32ee-/JJJ)	.	.
16BB-/	(<8.ff/L	4a^\	.
16B-\	.	.	.
16BB-/	.	.	.
16B-\JJ	16ee-/Jk)	.	.
=28	=28	=28	=28
*	*	*	*^
!	!	!	!	!LO:DY:b=2
!	!	!	!LO:DY:t=F	!LO:DY:t=F
(16BB-\LL 16D 16F	8dd/L	8b-\	f	f
16B-\	.	.	.	.
16BB-\ 16D 16F	32ree	8rcyy	.	.
.	(32ff/LL	.	.	.
16B-\	32gg/	.	.	.
.	32aa/JJJ)	.	.	.
16BB-\ 16D 16F	16bb-`\LL	4rcyy	.	.
16B-\	16aa`\	.	.	.
16BB-\ 16D 16F	16gg`\	.	.	.
16B-\	16ff`\JJ	.	.	.
16BB-\ 16D 16F	16ee-`\LL	4rcyy	.	.
16B-\	16dd`\	.	.	.
16BB-\ 16D 16F	16cc`\	.	.	.
16B-\JJ)	16b-`\JJ	.	.	.
*	*	*	*v	*v
=29	=29	=29	=29
(16BB-\LL 16E- 16G	8b-`\ 8bb-	2b-\yy	.
16B-\	.	.	.
16BB-\ 16E- 16G	(4b-^<\ 4bb-	.	.
16B-\	.	.	.
16BB-\ 16E- 16G	.	.	.
16B-\	.	.	.
16BB-\ 16E- 16G	8gg\)	.	.
16B-\	.	.	.
16BB-\ 16E- 16G	(<8gg/L	4b-^\	.
16B-\	.	.	.
16BB-\ 16E- 16G	8ee-/J)	.	.
16B-\JJ)	.	.	.
*	*v	*v	*
=30	=30	=30
(16BB-\LL 16D 16F	16dd`\LL	.
16B-\	16rcc	.
16BB-\ 16D 16F	(16.gg^<\	.
16B-\	.	.
.	32ff\JJk)	.
16BB-\ 16D 16F	16dd`\LL	.
16B-\	16rcc	.
16BB-\ 16D 16F	(16.gg^<\	.
16B-\	.	.
.	32ff\JJk)	.
16BB-\ 16D 16F	(16ee-\LL	.
16B-\	16dd\)	.
16BB-\ 16D 16F	16cc`\	.
16B-\JJ)	16b-`\JJ	.
=31	=31	=31
*	*^	*
(16BB-\LL 16E- 16G	8b-`\ 8bb-	2b-\yy	.
16B-\	.	.	.
16BB-\ 16E- 16G	(4b-^<\ 4bb-	.	.
16B-\	.	.	.
16BB-\ 16E- 16G	.	.	.
16B-\	.	.	.
16BB-\ 16E- 16G	8gg\)	.	.
16B-\	.	.	.
16BB-\ 16E- 16G	(<8gg/L	4b-^\	.
16B-\	.	.	.
16BB-\ 16E- 16G	8ee-/J)	.	.
16B-\JJ)	.	.	.
*	*v	*v	*
=32	=32	=32
*Xtremolo	*	*
16BB-\LL	8b-`\L 8dd	p
16B-\	.	.
16BB-\	(16b-\L 16dd	.
16B-\JJ	16a\JJ) 16cc#X	.
16A\LL	8b-`\ 8dd	.
16B-\	.	.
!	!LO:TX:b:t=a pocco_pocco_:dur=6eq2s:ext=ud:problem:text with extention lines 	!
16A\	8b-`\L 8dd	.
16B-\JJ	.	.
16G\LL	8b-`\ 8dd	.
16B-\	.	.
16G\	8b-`\J 8dd	.
16B-\JJ	.	.
=33	=33	=33
16F\LL	8ccn`\ 8ee-	.
16B-\	.	.
16F\	4b-^\ 4dd	.
16B-\JJ	.	.
16E-\LL	.	.
16B-\	.	.
16E-\	(16b-\LL 16dd	.
16B-\JJ	16a\JJ) 16cc#X	.
16D\LL	8b-`\L 8dd	.
16B-\	.	.
16D\	8b-`\J 8dd	.
16B-\JJ	.	.
!!LO:LB:g=original	!	!
=34	=34	=34
16C\LL	8ccn`\ 8ee-	.
16B-\	.	.
16C\	4b-\ 4dd	<
16B-\JJ	.	.
16BB-\LL	.	.
16B-\	.	.
16BB-\	16dd\LL	.
16B-\JJ	16b-\JJ	.
16C\LL	16ee-\LL	.
16B-\	16b-\	.
16D\	16ff\	.
16B-\JJ	16b-\JJ	[
=35	=35	=35
*	*	*^
8E-`\	8gg`\	>	.
!	!	!	!LO:DY:t=F
4E-:\ 4G: 4B-: 4e-:	4b-:\ 4ee-: 4gg: 4bb-:	.	f
*clefG2	*	*	*
(8e-/L 8g	(8ee-\L 8gg	.	.
8d/ 8f	8dd\ 8ff	.	.
8c/J) 8e-	8cc\J) 8ee-	]]	.
*	*	*v	*v
=36	=36	=36
*	*^	*
8B-/ 8d	8dd/	8b-\	.
*clefF4	*	*	*
*	*	*	*^
!	!	!	!LO:DY:t=F	!LO:DY:b=2
!	!	!	!	!LO:DY:t=F
4BB-^<:\ 4D: 4F: 4B-:	4ff^:/	4f:\ 4b-: 4dd:	f	f
8BB-`\L 8D 8F 8B-	8f`/L 8b- 8dd 8ff	8rcyy	.	.
8E-`\ 8G 8B-	8g`/ 8b- 8ee- 8gg	4rcyy	.	.
8BB-`\J 8D 8F 8B-	8f`/J 8b- 8dd 8ff	.	.	.
=37	=37	=37	=37	=37
8E-\ 8G 8B-	(<8.g/L 8.b- 8.ee- 8.gg	4g\	.	.
8r	.	.	.	.
.	16ff/Jk	.	.	.
!	!	!	!	!LO:HP:b=2
2F\ 2c 2e-	8.ee-/L	2a\	.	>]
.	16dd/Jk	.	.	.
.	8ff/L	.	.	.
.	16ee-/L)	.	.	.
.	16cc/JJ	.	.	.
*	*v	*v	*	*
*	*	*v	*v
=38	=38	=38
*^	*	*
(8d/L	(8B-\L	(16b-/LL	.
.	.	16a/	.
8c/J) 8e-	8F\J) 8c	16dd/	.
.	.	16cc/JJ)	.
8rc	8rEEyy	(>4a/ 4cc	.
(8c/L 8e-	(8F\L 8c	.	.
8d/J)	8B-\J)	8b-/)	.
8rc	8rEEyy	8r	.
*v	*v	*	*
!!LO:LB:g=original	!	!
=39:|!	=39:|!	=39:|!
!	!LO:TX:a:t=espressivo	!
!	!LO:TX:a:B:t=TRIO.	!
!	!LO:TX:a:B:t=d'une Prière de la Vestale, ô des infortunes déesse tutelaire.	!
16r	16d/	p
=40	=40	=40
*^	*	*
!	!	!	!LO:DY:b=2
8G/L	2G\	(<4.b-\	p
8B-/ 8d	.	.	.
8B-/ 8d	.	.	.
8B-/J 8d	.	16a/LL)	.
.	.	16g/JJ	.
8F#X/L	4F#\	(16cc#X\LL	.
.	.	16dd\	.
8A/J 8c 8d	.	16ee-\	.
.	.	16dd\JJ)	.
=41	=41	=41	=41
8G/L	2G\	(4..dd\	.
8B-/ 8d	.	.	.
8B-/ 8d	.	.	.
8B-/J 8d	.	.	.
.	.	16ccn\)	.
8G/L	4G\	4b-\	.
8B-/J 8d	.	.	.
=42	=42	=42	=42
.	.	16qcc/	.
8F#X/L	2F#\	(16b-\LL	.
.	.	16a\JJ)	.
8A/ 8d	.	4a^\	.
8A/ 8d	.	.	.
8A/J 8d	.	16cc`\LL	.
.	.	16dd`\JJ	.
.	.	16qqff/	.
8D/L	4D\	8ee-\L	.
8A/J 8d	.	(16dd\L	.
.	.	16cc\JJ)	.
=43	=43	=43	=43
8G/L	2G\	(16cc/LL	.
.	.	16b-/	.
8B-/ 8d	.	16dd/	.
.	.	16cc/JJ)	.
8B-/ 8d	.	4b-/	.
8B-/J 8d	.	.	.
8G/L	4G\	8.r	.
8B-/J 8d	.	.	.
.	.	16dd\	.
=44	=44	=44	=44
!	!	!	!LO:HP:a
.	.	8qqdd/	<
*	*	*^	*
*	*	*	*	*^
!	!	!	!	!	!LO:HP:b=2
8G/L	2G\	2ee-\	2b-\yy	.	<
8B-/ 8e-	.	.	.	.	.
8B-/ 8e-	.	.	.	.	.
8B-/J 8e-	.	.	.	.	.
8E-X/L	4E-X\	4ee-/	4e-\ 4ee-	[	.
8G/J 8B- 8d-X	.	.	.	.	[[
=45	=45	=45	=45	=45	=45
*	*^	*	*	*	*
!	!	!	!	!	!	!LO:HP:b=2
4.c:/	4.A-X:\	4.C:\ 4.E-:	4ee-:/	4e-:\ 4ee-:	.	>
!	!	!	!LO:TUP:b	!	!	!
.	.	.	12a/L	4rcyy	>	.
.	.	.	12ee-/	.	.	.
8rС	8rEEyy	8ryy	.	.	.	]
.	.	.	12ddn/J	.	.	.
!	!	!	!LO:TUP:b	!	!	!
4rС	4rEEyy	4ryy	12ee-/L	4rcyy	.	.
.	.	.	12cc/	.	.	.
.	.	.	12a/J	.	.	.
*	*v	*v	*	*	*	*
*	*	*v	*v	*	*
!!LO:LB:g=original	!	!	!	!
=46	=46	=46	=46	=46
!	!	!	!	!LO:DY:b=2
8D/L	2D\	8g`/L	] p	p
8G/ 8B-	.	(32an/LL	.	.
.	.	32g/	.	.
.	.	32f#X/	.	.
.	.	32g/JJJ)	.	.
!	!	!	!LO:HP:a	!
8G/ 8B-	.	(4.dd/	>	.
8G/J 8B-	.	.	.	.
!	!	!	!	!LO:HP:b=2
4A/ 4c	4D\	.	.	>
.	.	8f#X/)	]	.
=47	=47	=47	=47	=47
!	!	!LO:TX:t=P:problem:przekreślony obiegnik	!	!
(<8G/L 8B-	4D\	8g`S/L	p	]
8A/J) 8c	.	(16.b-/L	.	.
.	.	32a/JJk)	.	.
8rc	8rEEyy	(4f#X/ 4a	.	.
(8D/L 8A 8c	(8D\L	.	.	.
8B-/J)	8G\J)	8g/)	.	.
8rc	8rEEyy	8r	.	.
*v	*v	*	*	*
*	*	*v	*v
=48:|!|:	=48:|!|:	=48:|!|:
(8B-\L 8d	4.b-X^\	pp
8F\)	.	.
(8B-\ 8d	.	.
8F\)	16dd`\LL	.
.	16ffn`\JJ	.
(8B-\ 8d	(16ee-\LL	.
.	16dd\)	.
8F\J)	16cc\	.
.	16b-\JJ	.
=49	=49	=49
*tremolo	*	*
(8A\L 8e-	(8.bn\L	.
8F\	.	.
.	16cc\Jk)	.
8A\ 8e-	4cc\	.
8F\	.	.
8A\ 8e-	8.r	.
8F\J)	.	.
.	16f/	.
=50	=50	=50
(8B-\L 8d	(16f\LL	.
.	16b-X\)	.
8F\	16dd`\	.
.	16dd`\JJ	.
8B-\ 8d	16dd`\	.
!	!LO:TX:t=P:problem:przekreślony obiegnik	!
.	16ddsS\LL	>
8F\	(16gg\	.
.	16ff\JJ)	.
8B-\ 8d	16ee-\LL	.
.	16dd\	.
8F\J)	16cc\	.
.	16b-\JJ	]
=51	=51	=51
(2F\ 2A 2c	(8.bn\L	<
.	16cc\K)	.
.	8cc`\	.
.	8cc`\	.
4E-X\) 4G 4B- 4c#X	8cc#X`\	.
.	8cc#`\J	[
=52	=52	=52
*^	*	*
8D/L 8F#X 8A 8d	2.D\	4.dd^\	.
8F#/ 8A	.	.	.
8F#/ 8A	.	.	.
8F#/ 8A	.	16ee-`\LL	.
.	.	16dd`\JJ	.
8G/ 8B-	.	(16ccn\LL	.
.	.	16b-\)	.
8G/J 8B-	.	16a`\	.
.	.	16g`\JJ	.
!!LO:LB:g=original	!	!	!
=53	=53	=53	=53
!	!	!LO:TX:t=P:problem:# zapisany ołówkiem	!
!	!	!LO:TX:t=P:problem:przekreślony obiegnik	!
8D/L	2.D\	(8.f#S/L	.
8F#X/ 8A	.	.	.
.	.	16a/Jk)	.
8F#/ 8A	.	4d/	.
8F#/ 8A	.	.	.
8F#/ 8A	.	8r	.
8F#/J 8A	.	8dd`\	.
=54	=54	=54	=54
8D/L	2D\	(16cc#X\LL	<
.	.	16dd\	.
8F/ 8A	.	16ee-\	.
.	.	16dd\JJ	.
8F/ 8A	.	16cc#\LL	.
.	.	16dd\	.
8F/ 8A	.	16ee-\	.
.	.	16dd\JJ	[ >
8G/ 8B-	4D\	16ccn/LL	.
.	.	16b-/)	.
8G/J 8B-	.	16a`/	.
.	.	16g`/JJ	]
=55	=55	=55	=55
.	.	16qqf/	.
8D/L	2.D\	(8.b-/L	.
8F#X/ 8A	.	.	.
.	.	16a/Jk)	.
8F#/ 8A	.	4a`/	.
8F#/ 8A	.	.	.
8F#/ 8A	.	8r	.
8F#/J 8A	.	8a`/	.
*v	*v	*	*
=56	=56	=56
*	*^	*
!	!	!	!LO:DY:t=F
16C\LL	8a/	8a\yy	f
16A\	.	.	.
16Fn^\	4ee-^/	4a\ 4ee-	.
16A\JJ	.	.	.
*rep	*	*	*
16C\LL	.	.	.
16A\	.	.	.
16F\	(16dd/LL	8rcyy	.
16A\JJ	16ccn/JJ)	.	.
.	16qqdd/	.	.
*Xrep	*	*	*
*rep	*	*	*
16C\LL	(16cc/LL	4rcyy	.
16A\	16b-/)	.	.
.	16qqcc/	.	.
16F\	(16b-/	.	.
16A\JJ	16a/JJ)	.	.
*Xrep	*	*	*
=57	=57	=57	=57
4.BB-\ 4.D 4.Fn 4.B-	8b-`/L	4rcyy	.
.	(32cc/LL	.	.
.	32b-/	.	.
.	32a/	.	.
.	32b-/JJJ)	.	.
.	8.gg/L	4b-\	>
8r	.	.	.
.	(<16ffn/Jk	.	.
4r	16ee-/LL	4rcyy	.
.	16dd/	.	.
.	16cc/	.	.
.	16b-/JJ)	.	]
*	*v	*v	*
=58	=58	=58
*^	*	*
*	*	*	*^
!	!	!	!LO:DY:b=2	!
!	!	!	!LO:DY:t=Fp&colon;	!LO:HP:b=2
8C/L	2.C\	4.a-X/	fp >	>
8E-X/ 8A-X	.	.	.	.
8E-/ 8A-	.	.	.	.
8E-/J 8A-	.	16ee-`/LL	.	.
.	.	16dd`/JJ	.	.
4E-/ 4A-	.	(16ffn/LL	.	.
.	.	16ee-X/	.	.
.	.	16b-/)	]	.
.	.	16a-`/JJ	.	.
=59	=59	=59	=59	=59
(8G/L 8B-	4Dn\	(16g/LL	.	.
.	.	16b-/	.	.
8An/J) 8c	.	16.dd/)	.	.
.	.	32f#X/JJk	.	.
8rc	8rEEyy	(4f#/ 4a	.	.
(8D/L 8A 8c	8D\L	.	.	.
8B-/J)	8G\J	8g/)	.	]
8rc	8rEEyy	8r	.	.
*v	*v	*	*	*
*	*	*v	*v
=:|!	=:|!	=:|!
*-	*-	*-
!!!system-decoration: {(s1,s2)}
!!!RDF**kern: > = above
!!!RDF**kern: < = below
!!!ENC: Solarz Mateusz
!!!END: 2022-09-07
!!!ENC: Natalia Wrzos
!!!END: 2022-09-17
!!!YEC: Copyright 2022 Narodowy Instytut Fryderyka Chopina (https://polishscores.org)
!!!YEM: License CC-BY-4.0 (https://creativecommons.org/licenses/by/4.0)
